modules/hawcons-stroke/icons/icon-119-lock-rounded-open.svg

<?xml version="1.0" encoding="UTF-8" standalone="no"?>
<svg width="32px" height="32px" viewBox="0 0 32 32" version="1.1" xmlns="http://www.w3.org/2000/svg" xmlns:xlink="http://www.w3.org/1999/xlink" xmlns:sketch="http://www.bohemiancoding.com/sketch/ns">
    <!-- Generator: Sketch 3.0.3 (7891) - http://www.bohemiancoding.com/sketch -->
    <title>icon 119 lock rounded open</title>
    <desc>Created with Sketch.</desc>
    <defs></defs>
    <g id="Page-1" stroke="none" stroke-width="1" fill="none" fill-rule="evenodd" sketch:type="MSPage">
        <g id="icon-119-lock-rounded-open" sketch:type="MSArtboardGroup" fill="#929292">
            <path d="M21,23.9146472 L21,26.5089948 C21,26.7801695 21.2319336,27 21.5,27 C21.7761424,27 22,26.7721195 22,26.5089948 L22,23.9146472 C22.5825962,23.708729 23,23.1531095 23,22.5 C23,21.6715728 22.3284272,21 21.5,21 C20.6715728,21 20,21.6715728 20,22.5 C20,23.1531095 20.4174038,23.708729 21,23.9146472 L21,23.9146472 L21,23.9146472 Z M20,24.5001831 L20,26.4983244 C20,27.3276769 20.6657972,28 21.5,28 C22.3284271,28 23,27.3288106 23,26.4983244 L23,24.5001831 C23.6072234,24.04408 24,23.317909 24,22.5 C24,21.1192881 22.8807119,20 21.5,20 C20.1192881,20 19,21.1192881 19,22.5 C19,23.317909 19.3927766,24.04408 20,24.5001831 L20,24.5001831 L20,24.5001831 Z M17,16 L17,8.499235 C17,4.35752188 13.6337072,1 9.5,1 C5.35786438,1 2,4.35670485 2,8.499235 L2,9.5 L2,9.5 L2,12.4998351 C2,13.3283533 2.66579723,14 3.5,14 C4.32842712,14 5,13.3256778 5,12.4998351 L5,9.5 L5,8.49991749 C5,6.01688111 7.01471863,4 9.5,4 C11.9802243,4 14,6.01468168 14,8.49991749 L14,16.0000125 C12.3423335,16.0047152 11,17.339581 11,19.0094776 L11,24 C11,28.418278 14.5861677,32 18.9991061,32 L24.0008939,32 C28.4186782,32 32,28.4092877 32,24 L32,19.0094776 C32,17.347389 30.6544098,16 28.991212,16 L17,16 L17,16 Z M16,8.50071609 C16,4.91046973 13.0825462,2 9.5,2 C5.91014913,2 3,4.91996002 3,8.50071609 L3,12.501307 C3,12.7767276 3.23193359,13 3.5,13 L3.5,13 C3.77614237,13 4,12.7827428 4,12.5007386 L4,8.49558723 C4,5.46443971 6.46243388,3 9.5,3 C12.5313853,3 15,5.46045821 15,8.49558723 L15,16 L16,16 L16,8.50071609 L16,8.50071609 Z M13.9974219,17 C12.8942762,17 12,17.8970601 12,19.0058587 L12,24 C12,27.8659932 15.1374636,31 18.9939542,31 L24.0060458,31 C27.8687,31 31,27.8581267 31,24 L31,19.0058587 C31,17.8980535 30.1090746,17 29.0025781,17 L13.9974219,17 L13.9974219,17 Z" id="lock-rounded-open" sketch:type="MSShapeGroup"></path>
        </g>
    </g>
</svg>

<svg width="32" height="32" xmlns="http://www.w3.org/2000/svg"><path d="M21 23.915v2.594a.5.5 0 0 0 1 0v-2.594a1.5 1.5 0 1 0-1 0zm-1 .585v1.998a1.5 1.5 0 0 0 3 0V24.5a2.5 2.5 0 1 0-3 0zM17 16V8.5a7.5 7.5 0 1 0-15 0v4c0 .828.666 1.5 1.5 1.5.828 0 1.5-.674 1.5-1.5v-4C5 6.017 7.015 4 9.5 4 11.98 4 14 6.015 14 8.5V16c-1.658.005-3 1.34-3 3.01V24c0 4.418 3.586 8 8 8h5c4.419 0 8-3.59 8-8v-4.99A3.008 3.008 0 0 0 28.991 16H17zm-1-7.5C16 4.91 13.083 2 9.5 2 5.91 2 3 4.92 3 8.5v4.001c0 .276.232.499.5.499.276 0 .5-.217.5-.5V8.497a5.5 5.5 0 0 1 11 0V16h1V8.5zM13.997 17A2.001 2.001 0 0 0 12 19.006V24c0 3.866 3.137 7 6.994 7h5.012C27.869 31 31 27.858 31 24v-4.994A2 2 0 0 0 29.003 17H13.997z" fill="#929292" fill-rule="evenodd"/></svg>
